resources/svg/t-shirt-2-fill.svg

<svg fill="currentColor" viewBox="0 0 24 24" xmlns="http://www.w3.org/2000/svg"><path d="M20.998 3C21.5503 3 21.998 3.44772 21.998 4V11C21.998 11.5523 21.5503 12 20.998 12H18.997L18.998 20C18.998 20.5523 18.5503 21 17.998 21H5.99805C5.44576 21 4.99805 20.5523 4.99805 20L4.99705 11.999L2.99805 12C2.44576 12 1.99805 11.5523 1.99805 11V4C1.99805 3.44772 2.44576 3 2.99805 3H8.99805C8.99805 4.65685 10.3412 6 11.998 6C13.6549 6 14.998 4.65685 14.998 3H20.998Z"/></svg>

<svg xmlns="http://www.w3.org/2000/svg" viewBox="0 0 24 24" fill="currentColor">
    <g>
        <path fill="none" d="M0 0h24v24H0z"/>
        <path d="M21 3a1 1 0 0 1 1 1v7a1 1 0 0 1-1 1h-2.001L19 20a1 1 0 0 1-1 1H6a1 1 0 0 1-1-1l-.001-8.001L3 12a1 1 0 0 1-1-1V4a1 1 0 0 1 1-1h6a3 3 0 0 0 6 0h6z"/>
    </g>
</svg>
